X:1
T:Title
%%score { ( 1 3 4 ) | ( 2 5 ) }
L:1/8
M:4/4
K:Bb
V:1 treble nm="Grand Piano"
V:3 treble 
V:4 treble 
V:2 bass 
V:5 bass 
V:1
 z4 z[Q:1/4=100] FG[FA] | [FB]2 [EA]2 [DB]2 [Fc]2 | [Fd]4- [Fd]BBB | e2 d2 [Gc]2 [FB]2 | %4
[M:5/8] A-A- A3 |[M:3/8] FFG |[M:4/4] A2 _A2 =A2 B2 | c4- cFFG | [FA]2 [FB]2 [Fc]2 [Fd]2 | %9
 [Fe]6 z2 | [Fd]4 z2 z G | [DF]6 z2 | [DB]2 [Ec]2 [Fd]2 [FB]2 | G6 z2 | G4 [CEA]3 [G=B] | %15
 [Gc]4- [Gc]=Bcd | [Ge]2 [Gc]2 A2 F2 | [Fd]6 z2 | [Fd]4 z2 z G | B,2 B,2 z GAB | %20
 [Gc]2 [F=B]2 [Ec]2 [Gd]2 | [Ge]6 z2 | [Fd]4 [Fc]2 [FB]2 | [Ff]2 [Fe]2 [Fd]2 [FB]2 | %24
 [Fd]4 [A,Ec]4 |[M:5/8] [DB]-[DB]- [DB]3 |] %26
V:2
 z4 z F,[F,F][E,F,] | [D,F,]2 [C,F,]2 [B,,F,]2 [A,,F,]2 | [B,,B,]4- [B,,B,]B,[A,B,][_A,B,] | %3
 [G,B,E]2 [F,B,F]2 [E,B,]2 [D,B,]2 |[M:5/8] [F,CF]-[F,CF]- [F,CF]3 |[M:3/8] [F,A,][F,A,][F,B,F] | %6
[M:4/4] [F,CF]2 [F,=B,F]2 [F,CF]2 [F,G,F]2 | [F,A,F]4- [F,A,F][F,A,][F,A,][F,B,F] | %8
 [E,C]2 [D,B,]2 [C,A,]2 [B,,B,]2 | [F,C]6 z2 | [B,,B,]2 [B,,B,]2 [B,,F,]2 z D | B,,2 B,,2 z DEE | %12
 [B,,F,]2 [B,,F,]2 [B,,B,]2 [D,B,]2 | [E,B,E]2 [D,=B,]2 [C,C]2 z2 | [G,CE]4 ^F,2 z D | %15
 E,2 G,2[K:treble] z GGG | [C,C]2 [E,C]2 [F,CF]2 [F,A,]2 | B,4 z4 | %18
 [B,,B,]2 [B,,B,]2 [B,,F,]2 z D | B,,2 B,,2 z EED | [E,G,]2 [D,G,]2 [C,G,]2 [=B,,G,]2 | %21
 [C,G,]2 E,G, C2 z2 | B,4 z4 | [C,A,]2 [C,A,]2 [B,,B,]2 [D,B,]2 | [F,B,]4 [F,,F,]4 | %25
[M:5/8] [B,,B,]-[B,,B,]- [B,,B,]3 |] %26
V:3
 x8 | x8 | x8 | x8 |[M:5/8] x5 |[M:3/8] x3 |[M:4/4] x8 | x8 | x8 | x8 | z4 [DB]4 | B,2 B,2 z FGA | %12
 x8 | z2 F2 E2 z2 | x8 | E6 z2 | x8 | x8 | z4 [DB]4 | [DF]6 z2 | x8 | z2 C2 z4 | x8 | x8 | x8 | %25
[M:5/8] x5 |] %26
V:4
 x8 | x8 | x8 | x8 |[M:5/8] x5 |[M:3/8] x3 |[M:4/4] x8 | x8 | x8 | x8 | z4 z2 F,2 | z4 B,2 z2 | %12
 x8 | x8 | x8 | x8 | x8 | x8 | z4 z2 F,2 | z4 B,2 z2 | x8 | x8 | x8 | x8 | x8 |[M:5/8] x5 |] %26
V:5
 x8 | x8 | x8 | x8 |[M:5/8] x5 |[M:3/8] x3 |[M:4/4] x8 | x8 | x8 | x8 | z4 z2 B,,2 | z4 B,,2 z2 | %12
 x8 | x8 | z4 z2 =F,2 | z4[K:treble] C2 z2 | x8 | B,,2 D,F, B,2 z2 | z4 z2 B,,2 | z4 B,,2 z2 | x8 | %21
 x8 | z2 F,2 [E,A,]2 [D,B,]2 | x8 | x8 |[M:5/8] x5 |] %26

